icons/2_Variations/Discourse alt bg.var.svg

<svg width="1024" height="1024" fill="none" xmlns="http://www.w3.org/2000/svg"><g clip-path="url(#a)"><path d="M512 1024c282.77 0 512-229.23 512-512S794.77 0 512 0 0 229.23 0 512s229.23 512 512 512Z" fill="#71A372"/><path d="M514.2 256c140 0 253.8 117 253.8 255.9S654.3 767.7 514.1 767.7L256 768V507.5C256 368.6 374 256 514.2 256Zm2.5 97.3c-55.3-.1-106.6 28.8-135.2 76.2-28.4 47.1-29.6 105.7-3.2 154l-28.5 90.8 102.3-22.9c58.6 26.1 127.3 14.4 173.6-29.7 46.3-43.8 61-111.5 37.1-170.6-24.2-59.3-81.9-97.9-145.9-97.8h-.2Z" fill="#fff"/></g><defs><clipPath id="a"><path fill="#fff" d="M0 0h1024v1024H0z"/></clipPath></defs></svg>

<svg width="1024" height="1024" viewBox="0 0 1024 1024" fill="none" xmlns="http://www.w3.org/2000/svg">
<g clip-path="url(#clip0_3_62)">
<path d="M512 1024C794.77 1024 1024 794.77 1024 512C1024 229.23 794.77 0 512 0C229.23 0 0 229.23 0 512C0 794.77 229.23 1024 512 1024Z" fill="#71A372"/>
<path d="M514.2 256C654.2 256 768 373 768 511.9C768 650.8 654.3 767.7 514.1 767.7L256 768V507.5C256 368.6 374 256 514.2 256ZM516.7 353.3C461.4 353.2 410.1 382.1 381.5 429.5C353.1 476.6 351.9 535.2 378.3 583.5L349.8 674.3L452.1 651.4C510.7 677.5 579.4 665.8 625.7 621.7C672 577.9 686.7 510.2 662.8 451.1C638.6 391.8 580.9 353.2 516.9 353.3H516.7Z" fill="white"/>
</g>
<defs>
<clipPath id="clip0_3_62">
<rect width="1024" height="1024" fill="white"/>
</clipPath>
</defs>
</svg>
